!!!AGN: Motet
!!!SCT: Lowinsky (1968)
!!!voices: 4
!!!COM: Jacotin
!!!OTL: Rogamus te
**kern	**kern	**kern	**kern
*part4	*part3	*part2	*part1
*staff4	*staff3	*staff2	*staff1
*I"Bassus	*I"Tenor	*I"Altus	*I"Superius
*I'B	*I'T	*I'A	*I'S
*clefF4	*clefGv2	*clefGv2	*clefG2
*k[]	*k[]	*k[]	*k[]
*C:	*C:	*C:	*C:
*M2/1	*M2/1	*M2/1	*M2/1
*met(C|)	*met(C|)	*met(C|)	*met(C|)
!!section: Prima pars: Rogamus te
!!!OMD: Prima pars: Rogamus te
0GG	1.D	1.G	0d
.	2D	2G	.
=1	=1	=1	=1
1GG	2D	1B	1d
.	1G	.	.
[1D	.	1A	1d
.	4F	.	.
.	4E	.	.
=2	=2	=2	=2
2D]	4F	1d	1.a
.	4E	.	.
2D	4F	.	.
.	4G	.	.
1F	4A	2c	.
.	4B	.	.
.	2c	4B	[2a
.	.	4A	.
=3	=3	=3	=3
0E	2c	0e	2a]
.	4B	.	4g
.	4A	.	4f
.	1B	.	1g
=4	=4	=4	=4
1.F	0A	2d	1a
.	.	2.c	.
.	.	.	[1cc
.	.	8BL	.
.	.	8AJ	.
4E	.	4c	.
4D	.	4d	.
=5	=5	=5	=5
0C	1.c	0e	2cc]
.	.	.	4b
.	.	.	4a
.	.	.	1g
.	4B	.	.
.	4A	.	.
=6	=6	=6	=6
1.C	1G	1r	1.e
.	[1A	[1c	.
2AA	.	.	2e
=7	=7	=7	=7
1AA	2A]	2c]	1e
.	2A	2A	.
[1D	4F	1A	2r
.	4E	.	.
.	4F	.	[2a
.	4G	.	.
=8	=8	=8	=8
2D]	2A	1d	2a]
2GG	2B	.	2g
2.AA	2A	[1c	2f
.	2A	.	[2e
4BB	.	.	.
=9	=9	=9	=9
2C	2G	2c]	4e]
.	.	.	4d
2D	2F	2B	1d
1AA	1E	1A	.
.	.	.	2c#i
=10	=10	=10	=10
0D;	0D;	0A;	0d;
=11	=11	=11	=11
1F	0r	1f	0r
1G	.	2e	.
.	.	2d	.
=12	=12	=12	=12
1A	1F	2.c	0r
.	.	8BL	.
.	.	8AJ	.
2G	1G	2B	.
2E	.	2c	.
=13	=13	=13	=13
2D	1A	2d	1f
2F	.	2d	.
1E	1G	[1e	1g
=14	=14	=14	=14
1AA	1.c	0e_	1a
2r	.	.	1g
2E	2B	.	.
=15	=15	=15	=15
2AA	1A	0e_	1.cc
2AA	.	.	.
1E	1G	.	.
.	.	.	2b
=16	=16	=16	=16
1r	1.c	0e_	2a
.	.	.	2g
1AA	.	.	[1cc
.	4B	.	.
.	4A	.	.
=17	=17	=17	=17
1.C	2G	1e]	2cc]
.	2A	.	4b
.	.	.	4a
.	1E	1r	2g
2AA	.	.	2a
=18	=18	=18	=18
1AA	2r	1.c	2e
.	1e	.	1a
1r	.	.	.
.	2d	2B	2g
=19	=19	=19	=19
0r	2c	2A	2f
.	2B	2G	2e
.	2A	2F	2f
.	2G	[2E	[2g
=20	=20	=20	=20
0r	1B	4E]	4g]
.	.	4D	4f
.	.	1d	4e
.	.	.	4d
.	1A	.	1e
.	.	2c#i	.
=21	=21	=21	=21
2r	1D	2d	1d
1A	.	1f	.
.	1r	.	1r
2G	.	2e	.
=22	=22	=22	=22
2F	0r	2d	0r
2E	.	2c	.
2F	.	2d	.
[2G	.	[2e	.
=23	=23	=23	=23
4G]	0r	4e]	0r
4F	.	4d	.
4E	.	1d	.
4D	.	.	.
1E	.	.	.
.	.	2c#i	.
=24	=24	=24	=24
1D	2r	1d	2r
.	1A	.	1f
2r	.	1r	.
2C	2G	.	2e
=25	=25	=25	=25
2D	2F	2A	2d
2AA	2E	2A	2c
2D	2F	2B	2d
2C	[2G	2c	[2e
=26	=26	=26	=26
1BB	4G]	2d	4e]
.	4F	.	4d
.	4E	2G	1d
.	4D	.	.
1AA	1E	1A	.
.	.	.	2c#i
=27	=27	=27	=27
0D;	0D;	0A;	0d;
=28	=28	=28	=28
0F	0r	1A	0a
.	.	2c	.
.	.	2c	.
=29	=29	=29	=29
1D	0r	1d	1f
1E	.	2B	1g
.	.	[2c	.
=30	=30	=30	=30
1AA	1A	4c]	1a
.	.	4B	.
.	.	4A	.
.	.	4G	.
1r	1F	1A	1cc
=31	=31	=31	=31
1r	1G	1d	1b
2r	1A	2.c	2a
2AA	.	.	[2cc
.	.	4d	.
=32	=32	=32	=32
4AA	1c	0e	4cc]
4BB	.	.	4b
4C	.	.	1a
4D	.	.	.
4E	1B	.	.
4F	.	.	.
4G	.	.	2g
4E	.	.	.
=33	=33	=33	=33
2.F	2A	0r	1a
.	2.c	.	.
8EL	.	.	.
8DJ	.	.	.
2C	.	.	2r
.	4B	.	.
2D	[2A	.	2a
=34	=34	=34	=34
1BB	2A]	1d	1b
.	2G#i	.	.
2AA	1A	2c	[1cc
2c	.	2A	.
=35	=35	=35	=35
2A	1r	2.c	2cc]
2.c	.	.	2a
.	.	4d	.
.	1A	1e	1cc
4B	.	.	.
[2A	.	.	.
=36	=36	=36	=36
2A]	1B	1E	1b
2G#i	.	.	.
1A	[1c	2r	1a
.	.	2c	.
=37	=37	=37	=37
1AA	2c]	2A	1r
.	2A	2.c	.
2r	1c	.	1a
.	.	4B	.
2AA	.	[2A	.
=38	=38	=38	=38
2E	1B	2A]	1b
2E	.	2G	.
2AA	1A	4A	[1cc
.	.	4B	.
[2A	.	4c	.
.	.	4d	.
=39	=39	=39	=39
2A]	2r	2e	2cc]
2F	2A	2f	2cc
2G	2B	2d	2b
2D	2d	2f	[2a
=40	=40	=40	=40
0A	2c	2e	2a]
.	1e	2.c	1cc
.	.	4d	.
.	4d	4e	4b
.	4c	4f	4a
=41	=41	=41	=41
2G	2d	2g	2b
2F	2A	2d	1a
1E	1B	[1e	.
.	.	.	2g#i
=42	=42	=42	=42
0AA;	0A;	0e;]	0a;
=43	=43	=43	=43
1A	0r	1r	0r
2A	.	1e	.
2A	.	.	.
=44	=44	=44	=44
1G	0r	2e	1r
.	.	2e	.
2F	.	2d	1a
[2A	.	2c	.
=45	=45	=45	=45
4A]	0r	1c	2a
4G	.	.	.
1F	.	.	2a
.	.	1c	1g
2E	.	.	.
=46	=46	=46	=46
2F	1A	0r	2f
2D	.	.	2.a
1F	2A	.	.
.	.	.	4g
.	2A	.	[2f
=47	=47	=47	=47
1C	1G	1r	2f]
.	.	.	2e
2r	2F	1A	[1f
2D	[2A	.	.
=48	=48	=48	=48
1F	4A]	2A	1f]
.	4G	.	.
.	1F	2A	.
1C	.	1G	1r
.	2E	.	.
=49	=49	=49	=49
2r	1F	2F	1r
2D	.	2.A	.
1F	1r	.	1f
.	.	4G	.
.	.	[2F	.
=50	=50	=50	=50
1C	1r	2F]	1g
.	.	2E	.
1r	1F	2F	1a
.	.	2c	.
=51	=51	=51	=51
0r	1G	2B	2d
.	.	2B	1e
.	1A	2c	.
.	.	2c	[2f
=52	=52	=52	=52
2r	2D	2d	2f]
1C	1E	2G	2g
.	.	1A	2e
[2D	[2F	.	[2a
=53	=53	=53	=53
2D]	2F]	2r	2a]
1E	2G	2B	2.g
.	2E	1c	.
.	.	.	4f
[2AA	[2A	.	4e
.	.	.	4d
=54	=54	=54	=54
2AA]	2A]	1A	2c
2D	2F	.	2f
2GG	2G	2B	2d
2GG	2B-i	2G	2g
=55	=55	=55	=55
2.AA	1A	1.c	2f
.	.	.	2.e
4BB	.	.	.
2C	4G	.	.
.	4F	.	4d
2D	4E	2B	[2d
.	4D	.	.
=56	=56	=56	=56
1AA	1E	1A	2d]
.	.	.	2c#i
2r	2D	2r	1d
2A	2D	2d	.
=57	=57	=57	=57
2A	2F	2c	0r
2A	2F	2.f	.
1G	1C	.	.
.	.	8eL	.
.	.	8dJ	.
.	.	2e	.
=58	=58	=58	=58
2F	2r	2f	1a
2.A	2D	2F	.
.	1F	1c	2a
4G	.	.	.
[2F	.	.	2a
=59	=59	=59	=59
2F]	1C	1c	1g
2E	.	.	.
2F	1A	1r	2f
2D	.	.	[2a
=60	=60	=60	=60
1F	2A	0r	4a]
.	.	.	4g
.	2A	.	1f
1C	1G	.	.
.	.	.	2e
=61	=61	=61	=61
2r	2F	1A	0f
2D	2.A	.	.
1F	.	2A	.
.	4G	.	.
.	[2F	2A	.
=62	=62	=62	=62
1C	2F]	1G	0r
.	2E	.	.
2r	1F	2F	.
2D	.	[2A	.
=63	=63	=63	=63
1F	0r	4A]	1f
.	.	4G	.
.	.	1F	.
1C	.	.	1g
.	.	2E	.
=64	=64	=64	=64
0r	1F	2F	1a
.	.	2c	.
.	1G	2B	2d
.	.	2B	[2e
=65	=65	=65	=65
1r	1A	2c	2e]
.	.	2c	1f
2r	2D	2d	.
[2C	[2E	2G	2g
=66	=66	=66	=66
2C]	2E]	1A	2e
1D	1F	.	1a
.	.	2r	.
[2E	2G	2B	[2g
=67	=67	=67	=67
2E]	2E	1c	4g]
.	.	.	4f
1AA	1A	.	4e
.	.	.	4d
.	.	1A	2c
2D	2F	.	2f
=68	=68	=68	=68
2GG	2G	2B	2d
2GG	2B-i	2G	2g
2.AA	1A	[1c	2f
.	.	.	[2e
4BB	.	.	.
=69	=69	=69	=69
2C	4G	2c]	4e]
.	4F	.	4d
2D	4E	2B	1d
.	4D	.	.
1AA	1E	2A	.
.	.	[2A	2c#i
=70	=70	=70	=70
0BB	0D	2A]	2d
.	.	4G#i	1d
.	.	4F#i	.
.	.	1G#i	.
.	.	.	4c
.	.	.	4B
=71	=71	=71	=71
0AA;	0E;	0A;	0c;
=72	=72	=72	=72
00Dl	00Dl	00Al	00dl
==	==	==	==
*-	*-	*-	*-
!!!system-decoration: [*]
!!!RDF**kern: i = editorial accidental
!!!RDF**kern: l = terminal long
!!!ENC: Benjamin Ory
!!!END: 2021/9/6
!!!EED: Benjamin Ory
!!!EEV: 2021/09/06
!!!YEC: Copyright 2021 Benjamin Ory, All Rights Reserved
!!!ONB: Translated from MusicXML on 2021/09/06